assets/readme/logo.svg

<?xml version="1.0" encoding="UTF-8" standalone="no"?>
<!-- Created with Inkscape (http://www.inkscape.org/) -->

<svg
   width="161.87074mm"
   height="58.228897mm"
   viewBox="0 0 161.87074 58.228897"
   version="1.1"
   id="svg1"
   xml:space="preserve"
   xmlns="http://www.w3.org/2000/svg"
   xmlns:svg="http://www.w3.org/2000/svg"><defs
     id="defs1"><clipPath
       id="clip0_11543_23688"><rect
         width="542"
         height="156"
         fill="#ffffff"
         id="rect5"
         x="0"
         y="0" /></clipPath></defs><g
     id="layer2"
     transform="translate(-223.83229,-90.271092)"><g
       id="g2"
       transform="translate(187.89041,-4.8114318)"
       style="stroke:#00994c;stroke-opacity:1"><rect
         style="fill:#ffffff;fill-opacity:1;stroke:#00994c;stroke-width:1.708;stroke-dasharray:none;stroke-opacity:1"
         id="rect1"
         width="160.16275"
         height="56.520901"
         x="36.795887"
         y="95.936531"
         rx="5.0003767" /><g
         style="fill:none;stroke:#00994c;stroke-opacity:1"
         id="g1"
         transform="matrix(0.26458333,0,0,0.26458333,53.98936,111.77324)"><g
           clip-path="url(#clip0_11543_23688)"
           id="g5"
           transform="translate(-29.092752,-35.767577)"
           style="stroke:#00994c;stroke-opacity:1"><path
             d="M 118.688,129.362 H 26.0067 V 56.3757 H 118.688 Z M 98.0756,23.1999 h 0.7519 -52.9606 v -6.6502 c 0,-3.6562 -2.9639,-6.62013 -6.6201,-6.62013 v 0 c -3.6562,0 -6.6201,2.96393 -6.6201,6.62013 v 6.6502 h -6.62 c -7.3484,0 -13.2401,5.9051 -13.2401,13.2702 v 92.8919 c 0,1.743 0.3424,3.469 1.0078,5.079 0.6654,1.61 1.6406,3.072 2.87,4.305 1.2295,1.232 2.6891,2.209 4.2955,2.876 1.6063,0.667 3.328,1.011 5.0668,1.011 h 92.6813 c 1.738,0 3.46,-0.344 5.067,-1.011 1.606,-0.667 3.065,-1.644 4.295,-2.876 1.229,-1.233 2.205,-2.695 2.87,-4.305 0.665,-1.61 1.008,-3.336 1.008,-5.079 V 36.4701 c 0,-7.3651 -5.958,-13.2702 -13.24,-13.2702 h -6.62 v -6.6503 c 0,-3.6561 -2.964,-6.62003 -6.621,-6.62003 v 0 c -3.656,0 -6.6195,2.96393 -6.6195,6.62003 v 6.6503"
             fill="#219653"
             id="path1"
             style="stroke:#00994c;stroke-opacity:1" /><path
             d="m 12.7705,56.3782 v 72.9858 c 0.0019,7.326 5.9268,13.265 13.2363,13.267 h 92.6852 c 7.309,-0.002 13.234,-5.941 13.236,-13.267 V 56.3782 Z"
             fill="#219653"
             id="path2"
             style="stroke:#00994c;stroke-opacity:1" /><path
             d="m 23.5996,69.5089 c 0,-2.9914 2.425,-5.4164 5.4165,-5.4164 h 86.6629 c 2.992,0 5.417,2.425 5.417,5.4164 v 56.8731 c 0,2.991 -2.425,5.416 -5.417,5.416 H 29.016 c -2.9914,0 -5.4164,-2.425 -5.4164,-5.416 z"
             fill="#ffffff"
             id="path3"
             style="stroke:#00994c;stroke-opacity:1" /><rect
             x="12.7666"
             y="63.833401"
             width="119.156"
             height="22.6964"
             fill="#219653"
             fill-opacity="0.05"
             id="rect3"
             style="stroke:#00994c;stroke-opacity:1" /><rect
             x="12.7666"
             y="86.5298"
             width="119.156"
             height="22.6964"
             fill="#219653"
             fill-opacity="0.2"
             id="rect4"
             style="stroke:#00994c;stroke-opacity:1" /><path
             d="M 12.7666,109.226 H 131.923 v 8.511 c 0,7.835 -6.351,14.186 -14.186,14.186 H 26.9518 c -7.8343,0 -14.1852,-6.351 -14.1852,-14.186 z"
             fill="#219653"
             fill-opacity="0.5"
             id="path4"
             style="stroke:#00994c;stroke-opacity:1" /><path
             d="m 188.755,123.492 c -5.221,0 -9.328,-1.266 -12.322,-3.8 -2.995,-2.534 -4.492,-7.102 -4.492,-13.705 V 74.5469 h -9.904 v -8.1768 h 9.904 l 1.267,-13.7047 h 8.407 v 13.7047 h 16.814 v 8.1768 h -16.814 v 31.4401 c 0,3.609 0.729,6.066 2.188,7.371 1.459,1.228 4.031,1.842 7.716,1.842 h 5.989 v 8.292 z m 27.838,-69.7901 c -1.919,0 -3.532,-0.6143 -4.837,-1.8427 -1.228,-1.3052 -1.843,-2.9175 -1.843,-4.837 0,-1.8426 0.615,-3.3782 1.843,-4.6066 1.305,-1.2284 2.918,-1.8427 4.837,-1.8427 1.843,0 3.417,0.6143 4.722,1.8427 1.305,1.2284 1.958,2.764 1.958,4.6066 0,1.9195 -0.653,3.5318 -1.958,4.837 -1.305,1.2284 -2.879,1.8427 -4.722,1.8427 z m -4.837,69.7901 V 66.3701 h 9.674 v 57.1219 z m 26.518,0 V 66.3701 h 8.753 l 0.691,8.2919 c 1.842,-3.0711 4.299,-5.4511 7.37,-7.1402 3.071,-1.6891 6.526,-2.5337 10.365,-2.5337 4.53,0 8.407,0.9213 11.632,2.764 3.301,1.8426 5.835,4.645 7.601,8.4071 1.996,-3.455 4.722,-6.1806 8.177,-8.1768 3.531,-1.9962 7.332,-2.9943 11.401,-2.9943 6.833,0 12.284,2.073 16.354,6.219 4.069,4.0692 6.103,10.3649 6.103,18.8872 v 33.3977 h -9.558 V 91.1308 c 0,-5.9119 -1.191,-10.365 -3.571,-13.3593 -2.38,-2.9943 -5.796,-4.4915 -10.249,-4.4915 -4.607,0 -8.446,1.8043 -11.517,5.4128 -2.994,3.5318 -4.491,8.5991 -4.491,15.2019 v 29.5973 h -9.674 V 91.1308 c 0,-5.9119 -1.19,-10.365 -3.571,-13.3593 -2.38,-2.9943 -5.796,-4.4915 -10.249,-4.4915 -4.53,0 -8.331,1.8043 -11.402,5.4128 -2.994,3.5318 -4.491,8.5991 -4.491,15.2019 v 29.5973 z m 128.701,1.382 c -5.451,0 -10.288,-1.228 -14.511,-3.685 -4.222,-2.534 -7.562,-6.027 -10.019,-10.48 -2.38,-4.453 -3.57,-9.712 -3.57,-15.7778 0,-5.9886 1.19,-11.2094 3.57,-15.6625 2.38,-4.5299 5.682,-8.0232 9.904,-10.4801 4.3,-2.5337 9.252,-3.8005 14.857,-3.8005 5.528,0 10.288,1.2668 14.28,3.8005 4.069,2.4569 7.179,5.7199 9.329,9.7891 2.149,4.0692 3.224,8.4455 3.224,13.1289 0,0.8445 -0.038,1.6891 -0.115,2.5336 0,0.8446 0,1.8043 0,2.8792 h -45.49 c 0.23,4.3766 1.228,8.0236 2.994,10.9406 1.843,2.841 4.108,4.991 6.795,6.449 2.764,1.459 5.681,2.189 8.752,2.189 3.993,0 7.333,-0.922 10.02,-2.764 2.687,-1.843 4.645,-4.338 5.873,-7.486 h 9.559 c -1.536,5.297 -4.491,9.712 -8.868,13.244 -4.299,3.455 -9.827,5.182 -16.584,5.182 z m 0,-51.7091 c -4.606,0 -8.714,1.4204 -12.322,4.2611 -3.532,2.764 -5.567,6.8332 -6.104,12.2076 h 35.932 c -0.231,-5.1441 -1.997,-9.1749 -5.298,-12.0924 -3.301,-2.9175 -7.371,-4.3763 -12.208,-4.3763 z m 42.996,50.3271 V 74.5469 h -8.638 v -8.1768 h 8.638 v -9.9043 c 0,-5.5279 1.382,-9.5587 4.146,-12.0924 2.764,-2.5336 6.795,-3.8005 12.092,-3.8005 h 5.759 v 8.292 h -4.262 c -2.917,0 -4.99,0.6142 -6.218,1.8426 -1.229,1.1517 -1.843,3.1479 -1.843,5.9887 v 9.6739 h 14.05 v 8.1768 h -14.05 v 48.9451 z m 56.087,1.382 c -6.757,0 -12.131,-2.034 -16.124,-6.103 -3.992,-4.146 -5.988,-10.481 -5.988,-19.0028 V 66.3701 h 9.674 v 32.3616 c 0,11.9003 4.875,17.8503 14.626,17.8503 4.99,0 9.098,-1.765 12.323,-5.297 3.301,-3.609 4.952,-8.714 4.952,-15.3173 V 66.3701 h 9.674 v 57.1219 h -8.753 l -0.691,-10.249 c -1.766,3.608 -4.415,6.449 -7.946,8.522 -3.455,2.073 -7.371,3.109 -11.747,3.109 z m 45.06,-1.382 V 40.5729 h 9.674 v 82.9191 z"
             fill="#000000"
             id="path5"
             style="stroke:#00994c;stroke-opacity:1" /></g></g></g></g></svg>

<svg width="542" height="156" viewBox="0 0 542 156" fill="none" xmlns="http://www.w3.org/2000/svg">
<g clip-path="url(#clip0_11543_23688)">
<path d="M118.688 129.362H26.0067V56.3757H118.688V129.362ZM98.0756 23.1999H98.8275H45.8669V16.5497C45.8669 12.8935 42.903 9.92957 39.2468 9.92957V9.92957C35.5906 9.92957 32.6267 12.8935 32.6267 16.5497V23.1999H26.0067C18.6583 23.1999 12.7666 29.105 12.7666 36.4701V129.362C12.7666 131.105 13.109 132.831 13.7744 134.441C14.4398 136.051 15.415 137.513 16.6444 138.746C17.8739 139.978 19.3335 140.955 20.9399 141.622C22.5462 142.289 24.2679 142.633 26.0067 142.633H118.688C120.426 142.633 122.148 142.289 123.755 141.622C125.361 140.955 126.82 139.978 128.05 138.746C129.279 137.513 130.255 136.051 130.92 134.441C131.585 132.831 131.928 131.105 131.928 129.362V36.4701C131.928 29.105 125.97 23.1999 118.688 23.1999H112.068V16.5496C112.068 12.8935 109.104 9.92957 105.447 9.92957V9.92957C101.791 9.92957 98.8275 12.8935 98.8275 16.5496V23.1999" fill="#219653"/>
<path d="M12.7705 56.3782V129.364C12.7724 136.69 18.6973 142.629 26.0068 142.631H118.692C126.001 142.629 131.926 136.69 131.928 129.364V56.3782H12.7705Z" fill="#219653"/>
<path d="M23.5996 69.5089C23.5996 66.5175 26.0246 64.0925 29.0161 64.0925H115.679C118.671 64.0925 121.096 66.5175 121.096 69.5089V126.382C121.096 129.373 118.671 131.798 115.679 131.798H29.016C26.0246 131.798 23.5996 129.373 23.5996 126.382V69.5089Z" fill="white"/>
<rect x="12.7666" y="63.8334" width="119.156" height="22.6964" fill="#219653" fill-opacity="0.05"/>
<rect x="12.7666" y="86.5298" width="119.156" height="22.6964" fill="#219653" fill-opacity="0.2"/>
<path d="M12.7666 109.226H131.923V117.737C131.923 125.572 125.572 131.923 117.737 131.923H26.9518C19.1175 131.923 12.7666 125.572 12.7666 117.737V109.226Z" fill="#219653" fill-opacity="0.5"/>
<path d="M188.755 123.492C183.534 123.492 179.427 122.226 176.433 119.692C173.438 117.158 171.941 112.59 171.941 105.987V74.5469H162.037V66.3701H171.941L173.208 52.6654H181.615V66.3701H198.429V74.5469H181.615V105.987C181.615 109.596 182.344 112.053 183.803 113.358C185.262 114.586 187.834 115.2 191.519 115.2H197.508V123.492H188.755ZM216.593 53.7019C214.674 53.7019 213.061 53.0876 211.756 51.8592C210.528 50.554 209.913 48.9417 209.913 47.0222C209.913 45.1796 210.528 43.644 211.756 42.4156C213.061 41.1872 214.674 40.5729 216.593 40.5729C218.436 40.5729 220.01 41.1872 221.315 42.4156C222.62 43.644 223.273 45.1796 223.273 47.0222C223.273 48.9417 222.62 50.554 221.315 51.8592C220.01 53.0876 218.436 53.7019 216.593 53.7019ZM211.756 123.492V66.3701H221.43V123.492H211.756ZM238.274 123.492V66.3701H247.027L247.718 74.662C249.56 71.5909 252.017 69.2109 255.088 67.5218C258.159 65.8327 261.614 64.9881 265.453 64.9881C269.983 64.9881 273.86 65.9094 277.085 67.7521C280.386 69.5947 282.92 72.3971 284.686 76.1592C286.682 72.7042 289.408 69.9786 292.863 67.9824C296.394 65.9862 300.195 64.9881 304.264 64.9881C311.097 64.9881 316.548 67.0611 320.618 71.2071C324.687 75.2763 326.721 81.572 326.721 90.0943V123.492H317.163V91.1308C317.163 85.2189 315.972 80.7658 313.592 77.7715C311.212 74.7772 307.796 73.28 303.343 73.28C298.736 73.28 294.897 75.0843 291.826 78.6928C288.832 82.2246 287.335 87.2919 287.335 93.8947V123.492H277.661V91.1308C277.661 85.2189 276.471 80.7658 274.09 77.7715C271.71 74.7772 268.294 73.28 263.841 73.28C259.311 73.28 255.51 75.0843 252.439 78.6928C249.445 82.2246 247.948 87.2919 247.948 93.8947V123.492H238.274ZM366.975 124.874C361.524 124.874 356.687 123.646 352.464 121.189C348.242 118.655 344.902 115.162 342.445 110.709C340.065 106.256 338.875 100.997 338.875 94.9312C338.875 88.9426 340.065 83.7218 342.445 79.2687C344.825 74.7388 348.127 71.2455 352.349 68.7886C356.649 66.2549 361.601 64.9881 367.206 64.9881C372.734 64.9881 377.494 66.2549 381.486 68.7886C385.555 71.2455 388.665 74.5085 390.815 78.5777C392.964 82.6469 394.039 87.0232 394.039 91.7066C394.039 92.5511 394.001 93.3957 393.924 94.2402C393.924 95.0848 393.924 96.0445 393.924 97.1194H348.434C348.664 101.496 349.662 105.143 351.428 108.06C353.271 110.901 355.536 113.051 358.223 114.509C360.987 115.968 363.904 116.698 366.975 116.698C370.968 116.698 374.308 115.776 376.995 113.934C379.682 112.091 381.64 109.596 382.868 106.448H392.427C390.891 111.745 387.936 116.16 383.559 119.692C379.26 123.147 373.732 124.874 366.975 124.874ZM366.975 73.1649C362.369 73.1649 358.261 74.5853 354.653 77.426C351.121 80.19 349.086 84.2592 348.549 89.6336H384.481C384.25 84.4895 382.484 80.4587 379.183 77.5412C375.882 74.6237 371.812 73.1649 366.975 73.1649ZM409.971 123.492V74.5469H401.333V66.3701H409.971V56.4658C409.971 50.9379 411.353 46.9071 414.117 44.3734C416.881 41.8398 420.912 40.5729 426.209 40.5729H431.968V48.8649H427.706C424.789 48.8649 422.716 49.4791 421.488 50.7075C420.259 51.8592 419.645 53.8554 419.645 56.6962V66.3701H433.695V74.5469H419.645V123.492H409.971ZM466.058 124.874C459.301 124.874 453.927 122.84 449.934 118.771C445.942 114.625 443.946 108.29 443.946 99.7682V66.3701H453.62V98.7317C453.62 110.632 458.495 116.582 468.246 116.582C473.236 116.582 477.344 114.817 480.569 111.285C483.87 107.676 485.521 102.571 485.521 95.9677V66.3701H495.195V123.492H486.442L485.751 113.243C483.985 116.851 481.336 119.692 477.805 121.765C474.35 123.838 470.434 124.874 466.058 124.874ZM511.118 123.492V40.5729H520.792V123.492H511.118Z" fill="black"/>
</g>
<defs>
<clipPath id="clip0_11543_23688">
<rect width="542" height="156" fill="white"/>
</clipPath>
</defs>
</svg>
